X: 21
T: The Prince of Brunswick
P: P.11 #1
%R: jig
B: "Twenty Four Favourite Dances for the Year 1784", Thomas Straight, ed. p.11 #1
F: http://www.vwml.org/browse/browse-collections-dance-tune-books/browse-straights1784#
Z: 2014 John Chambers <jc:trillian.mit.edu>
M: 6/8
L: 1/8
K: G
% - - - - - - - - - - - - - - - - - - - - - - - - - - - - -
|:\
(gd)B (GA)G | (cBA) (BGD) |\
(gd)B (GA)B | (cBA) B3 :|\
|:\
(def) (gbg) | (fa)f (e^c)A |
(def) (gbg) | (faf) g3 :|\
|:\
gdB ecA | (Bc)A B2G |\
(gd)B (ec)A | BdD G3 :|
% - - - - - - - - - - Dance description - - - - - - - - - -
%%begintext align
%% The first Man set and turn the 2d Wo: .|. the
%% first Wo: sets and turn the 2d Man :|. cross
%% over one Cu: .|: foot it lead up and cast back :|:
%% foot it and back to back .|:. right Hands and
%% left :|:.
%%endtext

%%sep 2 1 500
%%sep 1 1 500

